X:1
T:Title
%%score ( 1 2 ) { ( 3 5 ) | 4 }
L:1/8
Q:1/4=100
M:4/4
K:F
V:1 treble nm="Grand Piano, Soprano"
V:2 treble 
V:3 bass nm="Choir Pad, Take My Hand and Lead Me"
V:5 bass 
V:4 bass 
V:1
 FG A2 c2 F2 | A2 D2 F4 | FG A2 F2 c2 | d2 G6 | FG A2 c2 F2 | A2 D2 B4 | dd c2 A2 G2- | GF F6 | %8
w: By~William~Beery * * * *||||||||
 FF B2 B2 d2 | B2 A2 c4 | AA G2 G2 =B2 | =B2 c6 | BB A2 c2 F2 | A2 D2 B4 | dd c2 A2 G2- | GF F6 | %16
w: ||||||||
 z2 F6 | z2 A6 | [Fc][Fc] [FA]2 [FA]2 [Ac]2 | [FA]2 [EG]6 | z2 F6 | z2 A6 | %22
w: ||||||
 [Fc][Fc] [FA]2 [FA]2 [EA]2 | [EG]2 F6 | z2 .A2 z2 A2- | A2 A4 z2 | [Fc][Fc] [Fd]2 [Fc]2 [FA]2- | %27
w: |||||
 [FA][FA] [EG]6 | z2 .A2 z2 A2- | A2 B4 d2 | F[FG] [FA]2 [FA]2 [EG]2- | [EG]F F6- | F2 z2 z4 |] %33
w: ||||||
V:2
 x8 | x8 | x8 | x8 | x8 | x8 | x8 | x8 | x8 | x8 | x8 | x8 | x8 | x8 | x8 | x8 | FF z2 CC C2 | %17
 AA z2 FF F2 | x8 | x8 | FF z2 CC C2 | AA z2 FF F2 | x8 | x8 | z2 c-[Ac-] [Ac-][Ac]FF | FFFF FFFF | %26
 x8 | x8 | z2 c-[Ac-] [Ac-][Ac]FF | FFFF FFFF | x8 | x8 | x8 |] %33
V:3
 z2 F,2 C2 F,2 | C2 B,,2 D2 D2 | z2 F,2 C2 A,2 | G,2 C,2 C2 C2 | z2 F,2 C2 F,2 | C2 B,,2 D2 D2 | %6
 z2 C,2 C2 C,2 | C2 F,2 C2 C2 | z2 B,,D DDB,,D | DDF,[K:treble]F FFF,F | FFG,E EEG,F | %11
 FF[K:bass]C,E EE C2 | z2 F,2 C2 F,2 | C2 B,,2 D2 D2 | z2 C,2 C2 C,2 | C2 F,2 C2 C2 | A,A, A,6 | %17
 z4 F,F, F,2 | A,A,[K:treble] C2 C2 C2 | C2 C6 | z2 A,6 | z2 C6 | A,A,[K:treble] C2 C2 C2 | %23
 B,2 A,6 | z2 CC CCCC | CCCC CC[K:bass]A,A, | A,A, B,2[K:treble] A,2 C2- | CC C6 | z2 CC CCCC | %29
 CCDD DDB,B, | DD C2 C2[K:bass] B,2- | B,A, A,6- | A,2 z2 z4 |] %33
V:4
 z4 A,2 z2 | A,2 z2 [F,B,]2 [F,B,]2 | z4 A,2 F,2 | [=B,,D,F,]2 z2 [E,G,]2 [E,G,]2 | z4 A,2 z2 | %5
 A,2 z2 [F,B,]2 [F,B,]2 | z4 [F,A,]2 z2 | [E,G,B,]2 z2 A,2 [F,A,]2 | %8
 z2 z [F,B,] [F,B,][F,B,] z [F,B,] | [F,B,][F,B,] z[K:treble] [A,C] [A,C][A,C] z [A,C] | %10
 [A,C][A,C] z C CC z D | D[K:bass]D z [G,C] [G,C][G,C] [C,E,G,B,]2 | z4 A,2 z2 | %13
 A,2 z2 [F,B,]2 [F,B,]2 | z4 [F,A,]2 z2 | [E,G,B,]2 z2 A,2 [F,A,]2 | z4 F,F, F,2 | CC C6 | %18
 F,F, F,2 F,2 F,2 | F,2 C,6 | z8 | z8 | F,F, C,2 C,2 C,2 | C,2 F,6 | z2 F,F, F,F,F,F, | %25
 F,F,F,F, F,F,F,F, | F,F, F,2 F,2 F,2- | F,F, C,6 | z2 F,F, F,F,F,F, | F,F,B,,B,, B,,B,,B,,B,, | %30
 B,,B,, C,2 C,2 C,2- | C,[F,,F,] [F,,F,]6- | [F,,F,]2 z2 z4 |] %33
V:5
 x8 | x8 | x8 | x8 | x8 | x8 | x8 | x8 | x8 | x3[K:treble] x5 | x8 | x2[K:bass] x6 | x8 | x8 | x8 | %15
 x8 | x8 | x8 | x2[K:treble] x6 | x8 | A,A, z2 F,F, F,2 | CC z2 F,F, F,2 | x2[K:treble] x6 | x8 | %24
 x8 | x6[K:bass] x2 | x4[K:treble] x4 | x8 | x8 | x8 | x6[K:bass] x2 | x8 | x8 |] %33

